images/header-mobile-calculate-logo.svg

<svg width="18" height="22" viewBox="0 0 18 22" fill="none" xmlns="http://www.w3.org/2000/svg">
<path d="M14.4222 17.851C14.4222 18.1343 14.2004 18.3569 13.9283 18.3569H11.2374C10.9653 18.3569 10.7436 18.1343 10.7436 17.851C10.7436 17.5676 10.9653 17.345 11.2374 17.345H13.9283C14.2004 17.345 14.4222 17.5676 14.4222 17.851ZM6.98432 17.6182L7.10526 17.4867L6.11758 16.4747L7.10526 15.4627C7.29675 15.2705 7.29675 14.9669 7.10526 14.7544C7.00448 14.6633 6.88354 14.6127 6.77268 14.6127C6.59127 14.6026 6.49048 14.6835 6.40985 14.7544L5.42217 15.7663L4.42441 14.7544C4.23292 14.5722 3.91041 14.5823 3.73908 14.7544C3.54759 14.9466 3.53751 15.2604 3.73908 15.4729L4.72676 16.4848L3.73908 17.4968C3.64838 17.5879 3.59798 17.7194 3.59798 17.851C3.59798 18.1343 3.81971 18.3569 4.09183 18.3569C4.22284 18.3569 4.35386 18.3063 4.44457 18.2052L5.43225 17.1932L6.41993 18.2052C6.60134 18.3873 6.94401 18.3873 7.12542 18.2052C7.21613 18.104 7.26652 17.9825 7.26652 17.851C7.26652 17.7194 7.21613 17.5879 7.12542 17.4968L7.00448 17.6182H6.98432ZM6.7626 10.494H5.91601V9.62374C5.91601 9.34039 5.69429 9.11776 5.42217 9.11776C5.15006 9.11776 4.91825 9.34039 4.91825 9.62374V10.494H4.07167C3.79955 10.494 3.57783 10.7167 3.57783 11C3.57783 11.2833 3.79955 11.506 4.07167 11.506H4.91825V12.3763C4.91825 12.6596 5.13998 12.8822 5.42217 12.8822C5.70437 12.8822 5.91601 12.6596 5.91601 12.3763V11.506H6.7626C7.03471 11.506 7.25644 11.2833 7.25644 11C7.25644 10.7167 7.03471 10.494 6.7626 10.494ZM13.9183 10.494H11.2273C10.9552 10.494 10.7335 10.7167 10.7335 11C10.7335 11.2833 10.9552 11.506 11.2273 11.506H13.9183C14.1904 11.506 14.4121 11.2833 14.4121 11C14.4121 10.7167 14.1904 10.494 13.9183 10.494ZM18 2.32751V19.6725C18 20.9577 16.972 22 15.7122 22H2.28779C1.028 22 0 20.9577 0 19.6725V2.32751C0 1.04232 1.028 0 2.28779 0H15.7122C16.972 0 18 1.04232 18 2.32751ZM15.7122 1.01196H2.28779C1.57223 1.01196 0.99776 1.5989 0.99776 2.32751V19.6725C0.99776 20.4011 1.57223 20.988 2.28779 20.988H15.7122C16.4278 20.988 17.0022 20.4011 17.0022 19.6725V2.32751C17.0022 1.5989 16.4278 1.01196 15.7122 1.01196ZM15.3091 4.15915V5.98068C15.3091 6.75989 14.6842 7.39742 13.9183 7.39742H4.07167C3.30571 7.39742 2.68085 6.75989 2.68085 5.98068V4.15915C2.68085 3.37995 3.30571 2.74241 4.07167 2.74241H13.9183C14.6842 2.74241 15.3091 3.37995 15.3091 4.15915ZM13.9183 3.74425H4.07167C3.84994 3.74425 3.66853 3.9264 3.66853 4.15915V5.98068C3.66853 6.20331 3.84994 6.39558 4.07167 6.39558H13.9183C14.14 6.39558 14.3214 6.21343 14.3214 5.98068V4.15915C14.3214 3.93652 14.14 3.74425 13.9183 3.74425ZM13.9183 14.6026H11.2273C10.9552 14.6026 10.7335 14.8252 10.7335 15.1086C10.7335 15.3919 10.9552 15.6145 11.2273 15.6145H13.9183C14.1904 15.6145 14.4121 15.3919 14.4121 15.1086C14.4121 14.8252 14.1904 14.6026 13.9183 14.6026Z" fill="white"/>
</svg>

<svg width="18" height="22" fill="none" xmlns="http://www.w3.org/2000/svg"><path d="M14.422 17.851a.498.498 0 01-.494.506h-2.69a.498.498 0 01-.494-.506c0-.283.221-.506.493-.506h2.691c.272 0 .494.223.494.506zm-7.438-.233l.121-.131-.987-1.012.987-1.012c.192-.192.192-.496 0-.709a.511.511 0 00-.332-.141.466.466 0 00-.363.141l-.988 1.012-.998-1.012a.508.508 0 00-.685 0 .511.511 0 000 .719l.988 1.012-.988 1.012a.507.507 0 00-.141.354c0 .283.222.506.494.506.13 0 .262-.05.353-.152l.987-1.012.988 1.012a.524.524 0 00.705 0 .525.525 0 00.142-.354.507.507 0 00-.142-.354l-.12.121h-.02zm-.221-7.124h-.847v-.87a.498.498 0 10-.998 0v.87h-.846a.498.498 0 00-.494.506c0 .283.222.506.494.506h.846v.87a.5.5 0 10.998 0v-.87h.847A.498.498 0 007.256 11a.498.498 0 00-.493-.506zm7.155 0h-2.69a.498.498 0 00-.495.506c0 .283.222.506.494.506h2.691a.498.498 0 00.494-.506.498.498 0 00-.494-.506zM18 2.328v17.345C18 20.957 16.972 22 15.712 22H2.288C1.028 22 0 20.958 0 19.672V2.328C0 1.042 1.028 0 2.288 0h13.424C16.972 0 18 1.042 18 2.328zm-2.288-1.316H2.288a1.3 1.3 0 00-1.29 1.316v17.345a1.3 1.3 0 001.29 1.315h13.424a1.3 1.3 0 001.29-1.316V2.328a1.3 1.3 0 00-1.29-1.316zm-.403 3.147v1.822c0 .779-.625 1.416-1.39 1.416H4.071c-.766 0-1.391-.637-1.391-1.416V4.159c0-.779.625-1.417 1.39-1.417h9.847c.766 0 1.391.638 1.391 1.417zm-1.39-.415H4.071a.407.407 0 00-.403.415v1.822c0 .222.18.415.403.415h9.846a.407.407 0 00.403-.415V4.159a.414.414 0 00-.403-.415zm0 10.859h-2.692a.498.498 0 00-.494.506c0 .283.222.505.494.505h2.691a.498.498 0 00.494-.505.498.498 0 00-.494-.506z" fill="#fff"/></svg>
